Obsidian-SemiLight/actions/22s/view-calendar-list.svg

<svg viewBox="0 0 22 22" xmlns="http://www.w3.org/2000/svg"><path d="m4 3v2h-1v1h1v1h-1v1h1v6h-1v1h1v1h-1v1h1v2h3 12v-1-15h-12zm3 1h2 1 8v2 1 2 1 2 1 2 1 2h-8-1-2v-2-1-2-1-2-1-2-1zm1 2v1h9v-1zm0 4v1h9v-1zm0 4v1h9v-1z" fill="#4d4d4d"/></svg>

<svg xmlns="http://www.w3.org/2000/svg" viewBox="0 0 22 22">
  <defs id="defs3051">
    <style type="text/css" id="current-color-scheme">
      .ColorScheme-Text {
        color:#4d4d4d;
      }
      </style>
  </defs>
 <path 
    style="fill:currentColor;fill-opacity:1;stroke:none" 
    d="M 4 3 L 4 5 L 3 5 L 3 6 L 4 6 L 4 7 L 3 7 L 3 8 L 4 8 L 4 14 L 3 14 L 3 15 L 4 15 L 4 16 L 3 16 L 3 17 L 4 17 L 4 19 L 7 19 L 19 19 L 19 18 L 19 3 L 7 3 L 4 3 z M 7 4 L 9 4 L 10 4 L 18 4 L 18 6 L 18 7 L 18 9 L 18 10 L 18 12 L 18 13 L 18 15 L 18 16 L 18 18 L 10 18 L 9 18 L 7 18 L 7 16 L 7 15 L 7 13 L 7 12 L 7 10 L 7 9 L 7 7 L 7 6 L 7 4 z M 8 6 L 8 7 L 17 7 L 17 6 L 8 6 z M 8 10 L 8 11 L 17 11 L 17 10 L 8 10 z M 8 14 L 8 15 L 17 15 L 17 14 L 8 14 z "
	class="ColorScheme-Text"
    />  
</svg>
